icon/pk/phone-outgoing.svg

<svg viewBox="0 0 48 48" fill="none" xmlns="http://www.w3.org/2000/svg" height="1em" width="1em">
  <path d="M28 20L41 7.5" stroke="black" stroke-width="4" stroke-linecap="round" stroke-linejoin="round"/>
  <path d="M28 7H41V20" stroke="black" stroke-width="4" stroke-linecap="round" stroke-linejoin="round"/>
  <path d="M14.3755 9.79423C15.1021 9.79423 15.7715 10.1883 16.1241 10.8235L18.5706 15.2303C18.8909 15.8073 18.9059 16.5052 18.6108 17.0955L16.254 21.8092C16.254 21.8092 16.937 25.3206 19.7954 28.179C22.6538 31.0374 26.1535 31.7086 26.1535 31.7086L30.8664 29.3522C31.4571 29.0568 32.1555 29.0721 32.7327 29.393L37.152 31.85C37.7866 32.2029 38.1802 32.8719 38.1802 33.598L38.1802 38.6715C38.1802 41.2552 35.7803 43.1213 33.3322 42.2952C28.3043 40.5987 20.4996 37.3685 15.5528 32.4216C10.6059 27.4748 7.3757 19.6701 5.67916 14.6422C4.85314 12.1941 6.71923 9.79423 9.30287 9.79423L14.3755 9.79423Z" fill="#2F88FF" stroke="black" stroke-width="4" stroke-linejoin="round"/>
</svg>

<svg width="48" height="48" fill="none" xmlns="http://www.w3.org/2000/svg"><path d="M28 20 41 7.5M28 7h13v13" stroke="#000" stroke-width="4" stroke-linecap="round" stroke-linejoin="round"/><path d="M14.376 9.794a2 2 0 0 1 1.748 1.03l2.447 4.406a2 2 0 0 1 .04 1.866l-2.357 4.713s.683 3.512 3.541 6.37c2.859 2.858 6.358 3.53 6.358 3.53l4.713-2.357a2 2 0 0 1 1.867.041l4.419 2.457a2 2 0 0 1 1.028 1.748v5.074c0 2.583-2.4 4.45-4.848 3.623-5.028-1.696-12.832-4.927-17.78-9.873-4.946-4.947-8.176-12.752-9.873-17.78-.826-2.448 1.04-4.848 3.624-4.848h5.072Z" fill="#2F88FF" stroke="#000" stroke-width="4" stroke-linejoin="round"/></svg>
